X: 21
T: Go to the Devil and shake your self
%R: jig
B: "Twenty Four Country Dances for the Year 1799", Thomas Skillern, ed. p.11 #1
F: http://www.vwml.org/browse/browse-collections-dance-tune-books/browse-skillerns1799
Z: 2014 John Chambers <jc:trillian.mit.edu>
M: 6/8
L: 1/8
K: C
G |\
Gcc cBA | GAG GEG | Gcc c2d | ecA A2G |\
Gcc cBA | GAG GEG | cec dfd | ecc c2 :|
|: e/f/ |\
gec cBc | AFF F2f/g/ | afd dec | BGG G2G |\
Gcc cBA | GAG GEG | cec dfd | ecc c2 :|
%%begintext align
%% First and 2d Cu: sett and turn round seperately [sic]
%% from each other, sett and turn seperately to each
%% other, lead down middle up again, right & left.
%%endtext

%%sep 1 1 500
%%sep 1 1 500
